src/16/actions/view-column.svg

<svg xmlns="http://www.w3.org/2000/svg" width="16" height="16"><defs><style id="current-color-scheme" type="text/css"></style></defs><path d="M1 3v10h2V3H1zm4 0v10h2V3H5zm4 0v10h2V3H9zm4 0v10h2V3h-2z" fill="currentColor" color="#565656"/></svg>

<svg xmlns="http://www.w3.org/2000/svg" width="16" height="16" viewBox="0 0 16 16">
 <defs>
  <style id="current-color-scheme" type="text/css">
   .ColorScheme-Text { color:#565656; } .ColorScheme-Highlight { color:#5294e2; }
  </style>
 </defs>
 <path style="fill:currentColor" class="ColorScheme-Text" d="M 1 3 L 1 13 L 3 13 L 3 3 L 1 3 z M 5 3 L 5 13 L 7 13 L 7 3 L 5 3 z M 9 3 L 9 13 L 11 13 L 11 3 L 9 3 z M 13 3 L 13 13 L 15 13 L 15 3 L 13 3 z"/>
</svg>
